X: 1987
T: As I Went Out One Morning Clear
R: reel
M: 4/4
K: Edorian
e2|B2B2A2A2|d2d2F2A2|B2F2E2E2|E6B2|
e2d2e2f2|g2g2f2d2|e2e2f2d2|B6B2|
e2d2e2f2|g2g2f2d2|e2e2f2d2|B6e2|
B2B2A2A2|d2d2F2A2|B2F2E2E2|E6||

